Include/imtgui/Resources/Icons/Home.svg

<svg width="495.398" height="495.398" xmlns="http://www.w3.org/2000/svg">

 <g>
  <title>background</title>
  <rect height="402" width="582" y="-1" x="-1" fill="none" id="canvas_background"/>
 </g>
 <g>
  <title>Layer 1</title>
  <g id="svg_1">
   <g id="svg_2">
    <g id="svg_3">
     <path d="m487.083008,225.514008l-75.079987,-75.080002l0,-86.730007c0,-15.681999 -12.708008,-28.390999 -28.413025,-28.390999c-15.668976,0 -28.376984,12.709 -28.376984,28.390999l0,29.940998l-55.903015,-55.904995c-27.639008,-27.624002 -75.694,-27.575002 -103.270004,0.049999l-187.727993,187.724007c-11.082,11.104004 -11.082,29.070999 0,40.15799c11.087,11.101013 29.089001,11.101013 40.172001,0l187.710014,-187.728996c6.11499,-6.083 16.89299,-6.083 22.975998,-0.017998l187.742004,187.746994c5.566986,5.550995 12.824982,8.312012 20.080994,8.312012c7.270996,0 14.540985,-2.764008 20.091003,-8.312012c11.085999,-11.085999 11.085999,-29.052994 -0.001007,-40.15799z" fill="#757575" id="svg_4"/>
     <path d="m257.561005,131.835999c-5.45401,-5.450996 -14.285004,-5.450996 -19.722992,0l-165.126015,165.076996c-2.606995,2.605988 -4.084999,6.164001 -4.084999,9.876984l0,120.401031c0,28.252991 22.908005,51.160004 51.160004,51.160004l81.753998,0l0,-126.610016l92.298996,0l0,126.610016l81.755005,0c28.251007,0 51.158997,-22.907013 51.158997,-51.159027l0,-120.401978c0,-3.713013 -1.464996,-7.270996 -4.084991,-9.876984l-165.108002,-165.077026z" fill="#757575" id="svg_5"/>
    </g>
   </g>
  </g>
  <g id="svg_6"/>
  <g id="svg_7"/>
  <g id="svg_8"/>
  <g id="svg_9"/>
  <g id="svg_10"/>
  <g id="svg_11"/>
  <g id="svg_12"/>
  <g id="svg_13"/>
  <g id="svg_14"/>
  <g id="svg_15"/>
  <g id="svg_16"/>
  <g id="svg_17"/>
  <g id="svg_18"/>
  <g id="svg_19"/>
  <g id="svg_20"/>
 </g>
</svg>

<?xml version="1.0" encoding="UTF-8" standalone="no"?>
<svg
   xmlns:dc="http://purl.org/dc/elements/1.1/"
   xmlns:cc="http://creativecommons.org/ns#"
   xmlns:rdf="http://www.w3.org/1999/02/22-rdf-syntax-ns#"
   xmlns:svg="http://www.w3.org/2000/svg"
   xmlns="http://www.w3.org/2000/svg"
   xmlns:sodipodi="http://sodipodi.sourceforge.net/DTD/sodipodi-0.dtd"
   xmlns:inkscape="http://www.inkscape.org/namespaces/inkscape"
   width="495.398"
   height="495.398"
   version="1.1"
   id="svg31"
   sodipodi:docname="Home.svg"
   inkscape:version="0.92.2 (5c3e80d, 2017-08-06)">
  <metadata
     id="metadata37">
    <rdf:RDF>
      <cc:Work
         rdf:about="">
        <dc:format>image/svg+xml</dc:format>
        <dc:type
           rdf:resource="http://purl.org/dc/dcmitype/StillImage" />
      </cc:Work>
    </rdf:RDF>
  </metadata>
  <defs
     id="defs35" />
  <sodipodi:namedview
     pagecolor="#ffffff"
     bordercolor="#666666"
     borderopacity="1"
     objecttolerance="10"
     gridtolerance="10"
     guidetolerance="10"
     inkscape:pageopacity="0"
     inkscape:pageshadow="2"
     inkscape:window-width="2560"
     inkscape:window-height="1388"
     id="namedview33"
     showgrid="false"
     inkscape:zoom="0.47638463"
     inkscape:cx="-45.131598"
     inkscape:cy="247.69901"
     inkscape:window-x="-8"
     inkscape:window-y="-8"
     inkscape:window-maximized="1"
     inkscape:current-layer="svg31" />
  <g
     id="g5">
    <title
       id="title2">background</title>
    <rect
       height="402"
       width="582"
       y="-1"
       x="-1"
       fill="none"
       id="canvas_background" />
  </g>
  <g
     id="g29"
     transform="matrix(0.80932199,0,0,0.80932199,47.230399,47.230912)"
     style="stroke-width:1.23560214">
    <title
       id="title7">Layer 1</title>
    <g
       id="svg_1"
       style="stroke-width:1.23560214">
      <g
         id="svg_2"
         style="stroke-width:1.23560214">
        <g
           id="svg_3"
           style="stroke-width:1.23560214">
          <path
             d="m 487.08301,225.51401 -75.07999,-75.08 V 63.703999 C 412.00302,48.022 399.29501,35.313 383.59,35.313 c -15.66898,0 -28.37699,12.709 -28.37699,28.390999 V 93.644997 L 299.31,37.740002 C 271.67099,10.116 223.616,10.165 196.03999,37.790001 L 8.312,225.51401 c -11.082,11.104 -11.082,29.071 0,40.15799 11.087,11.10101 29.089001,11.10101 40.172001,0 L 236.19401,77.943002 c 6.115,-6.083 16.89299,-6.083 22.976,-0.018 L 446.91202,265.672 c 5.56698,5.55099 12.82498,8.31201 20.08099,8.31201 7.271,0 14.54099,-2.76401 20.091,-8.31201 11.086,-11.086 11.086,-29.053 -10e-4,-40.15799 z"
             id="svg_4"
             inkscape:connector-curvature="0"
             style="fill:#757575;stroke-width:1.23560214" />
          <path
             d="m 257.56101,131.836 c -5.45402,-5.451 -14.28501,-5.451 -19.723,0 L 72.711998,296.913 c -2.606995,2.60598 -4.084999,6.164 -4.084999,9.87698 v 120.40103 c 0,28.25299 22.908005,51.16 51.160001,51.16 h 81.754 V 351.741 h 92.299 v 126.61001 h 81.755 c 28.25101,0 51.159,-22.90701 51.159,-51.15902 V 306.79001 c 0,-3.71301 -1.465,-7.271 -4.08499,-9.87699 z"
             id="svg_5"
             inkscape:connector-curvature="0"
             style="fill:#757575;stroke-width:1.23560214" />
        </g>
      </g>
    </g>
    <g
       id="svg_6"
       style="stroke-width:1.23560214" />
    <g
       id="svg_7"
       style="stroke-width:1.23560214" />
    <g
       id="svg_8"
       style="stroke-width:1.23560214" />
    <g
       id="svg_9"
       style="stroke-width:1.23560214" />
    <g
       id="svg_10"
       style="stroke-width:1.23560214" />
    <g
       id="svg_11"
       style="stroke-width:1.23560214" />
    <g
       id="svg_12"
       style="stroke-width:1.23560214" />
    <g
       id="svg_13"
       style="stroke-width:1.23560214" />
    <g
       id="svg_14"
       style="stroke-width:1.23560214" />
    <g
       id="svg_15"
       style="stroke-width:1.23560214" />
    <g
       id="svg_16"
       style="stroke-width:1.23560214" />
    <g
       id="svg_17"
       style="stroke-width:1.23560214" />
    <g
       id="svg_18"
       style="stroke-width:1.23560214" />
    <g
       id="svg_19"
       style="stroke-width:1.23560214" />
    <g
       id="svg_20"
       style="stroke-width:1.23560214" />
  </g>
</svg>
